X:4
T: Kommst du nit hurtig heraus in unsere Mitt'?, S. 19
N: S0067
O: Luxemburg
S: Die Bauernhochzeit in frheren Zeiten]
R: Brautlied]
M: 2/4
L: 1/16
K: F
 | c3AA4 | c3AA4 | B2BBB2B2 | c2ccc2z2 |
c2AAA4 | c3AA4 | G2G2c2B2 | A4z4

@@@ Tune index: 8058
